X: 5392
T: Bucks Of Westmeath, The
R: jig
M: 6/8
K: Gmajor
|:e|~d3 BdB|GBd gdB|~d3 BdB|A2B c2e|
~d3 BdB|GBd g2B|cac BgB|A2B c2:|
|:d|gag gdB|gag gba|gag gdB|A2B c2d|
gbg ~a3|gbg faf|gfe dcB|A2B c2:|
|:e|dBG G2e|dBG Bdg|dBG G2B|A2B c2e|
dBG GBd|gfe d2B|cac BgB|A2B c2:|

